ui/StatusQ/src/assets/img/icons/download.svg

<svg fill="none" height="24" viewBox="0 0 24 24" width="24" xmlns="http://www.w3.org/2000/svg"><g fill="#000"><path d="m16 13.25c0-.4142.3383-.7434.7469-.8117 2.1298-.3558 3.7531-2.2075 3.7531-4.4383 0-2.48528-2.0147-4.5-4.5-4.5h-8c-2.48528 0-4.5 2.01472-4.5 4.5 0 2.2308 1.62331 4.0825 3.75314 4.4383.40855.0683.74686.3975.74686.8117s-.33747.7549-.74851.7038c-2.96045-.3684-5.25149-2.8936-5.25149-5.9538 0-3.31371 2.68629-6 6-6h8c3.3137 0 6 2.68629 6 6 0 3.0602-2.291 5.5854-5.2515 5.9538-.411.0511-.7485-.2896-.7485-.7038z"/><path d="m12 7.25c.4142 0 .75.33579.75.75v9.9822c0 .4455.5386.6686.8536.3536l1.8661-1.8661c.2929-.2929.7677-.2929 1.0606 0s.2929.7677 0 1.0606l-4 4c-.2929.2929-.7677.2929-1.0606 0l-4.00003-4c-.29289-.2929-.29289-.7677 0-1.0606s.76777-.2929 1.06066 0l1.86607 1.8661c.315.315.8536.0919.8536-.3536v-9.9822c0-.41421.3358-.75.75-.75z"/></g></svg>

<svg width="24" height="24" viewBox="0 0 24 24" fill="none" xmlns="http://www.w3.org/2000/svg">
<path d="M16 13.25C16 12.8358 16.3383 12.5066 16.7469 12.4383C18.8767 12.0825 20.5 10.2308 20.5 8C20.5 5.51472 18.4853 3.5 16 3.5L8 3.5C5.51472 3.5 3.5 5.51472 3.5 8C3.5 10.2308 5.12331 12.0825 7.25314 12.4383C7.66169 12.5066 8 12.8358 8 13.25C8 13.6642 7.66253 14.0049 7.25149 13.9538C4.29104 13.5854 2 11.0602 2 8C2 4.68629 4.68629 2 8 2L16 2C19.3137 2 22 4.68629 22 8C22 11.0602 19.709 13.5854 16.7485 13.9538C16.3375 14.0049 16 13.6642 16 13.25Z" fill="black"/>
<path d="M12 7.25C12.4142 7.25 12.75 7.58579 12.75 8V17.9822C12.75 18.4277 13.2886 18.6508 13.6036 18.3358L15.4697 16.4697C15.7626 16.1768 16.2374 16.1768 16.5303 16.4697C16.8232 16.7626 16.8232 17.2374 16.5303 17.5303L12.5303 21.5303C12.2374 21.8232 11.7626 21.8232 11.4697 21.5303L7.46967 17.5303C7.17678 17.2374 7.17678 16.7626 7.46967 16.4697C7.76256 16.1768 8.23744 16.1768 8.53033 16.4697L10.3964 18.3358C10.7114 18.6508 11.25 18.4277 11.25 17.9822V8C11.25 7.58579 11.5858 7.25 12 7.25Z" fill="black"/>
</svg>
